!!!SOCIAL_FUNCTION:	uncategorized
!!!PDT:	1932
!!!OTL: Flute Melody No.1
!!!REG: Wisconsin
!!!LANG: Non-Tone
!!!LING_GROUP: Algonquin
**kern
*staff1
=1-
*clefG2
*k[f#c#g#]
*M3/4
[4a/
(4..a/]
16aa\)
=2||
*M2/4
(4..a/
16aa\)
=3
4a/
4aa\
=4
4.ee\
16ff#\LL
16ee\JJ
=5
4dd\
4aa\
=6||
*M3/4
4.dd\
8cc#\
8.b\L
16dd\Jk
=7||
*M2/4
[2a/
=8
4.a/]
8r
=9
4..ee\
16dd\
=10
12dd\L
12cc#\
24b\Jk
24r
8.b\L
16dd\Jk
=11
(aq/
4.aa\)
8r
=12
[2a/
=13
(4..a/]
16aa\)
=14
4a/
8aa\
8r
==
*-
